X:828
T:The Four Courts
R:reel
H:See also #827
D:Marcas \'O Murch\'u: \'O Bh\'eal go B\'eal
Z:id:hn-reel-828
M:C|
L:1/8
K:Dmix
AD~D2 A2BD | ADED ~G3B | ADED BG~G2 | BdcA G2FG :| 
E2BE cEBE | E2BA G2GF | E2BE cEBE | ~E2BA G2GF | 
E2BE cEBE | E2BA ~G3B | A2eg fdef | dBAF ~G3z || 
A4 B3G | ABAF G2FG | A2Ac B2BA | GB~B2 GBdB | 
A4 B3G | ABAF ~G3z | A2eg fdef | dBAF G2FG ||
